app/icons/odnoklassniki-circled.svg

﻿<svg xmlns="http://www.w3.org/2000/svg" viewBox="0 0 50 50" width="50" height="50">
    <path style="line-height:normal;text-indent:0;text-align:start;text-decoration-line:none;text-decoration-style:solid;text-decoration-color:#000;text-transform:none;block-progression:tb;isolation:auto;mix-blend-mode:normal" d="M 25 2 C 12.309295 2 2 12.309295 2 25 C 2 37.690705 12.309295 48 25 48 C 37.690705 48 48 37.690705 48 25 C 48 12.309295 37.690705 2 25 2 z M 25 4 C 36.609824 4 46 13.390176 46 25 C 46 36.609824 36.609824 46 25 46 C 13.390176 46 4 36.609824 4 25 C 4 13.390176 13.390176 4 25 4 z M 25 9 C 20.593567 9 17 12.593567 17 17 C 17 21.406433 20.593567 25 25 25 C 29.406433 25 33 21.406433 33 17 C 33 12.593567 29.406433 9 25 9 z M 25 11 C 28.325553 11 31 13.674447 31 17 C 31 20.325553 28.325553 23 25 23 C 21.674447 23 19 20.325553 19 17 C 19 13.674447 21.674447 11 25 11 z M 25 13 C 22.802706 13 21 14.802706 21 17 C 21 19.197294 22.802706 21 25 21 C 27.197294 21 29 19.197294 29 17 C 29 14.802706 27.197294 13 25 13 z M 25 15 C 26.116414 15 27 15.883586 27 17 C 27 18.116414 26.116414 19 25 19 C 23.883586 19 23 18.116414 23 17 C 23 15.883586 23.883586 15 25 15 z M 18.875 25.523438 C 17.375579 25.58907 16 26.780308 16 28.429688 C 16 29.601889 16.654143 30.685168 17.699219 31.224609 C 18.122273 31.442715 18.576556 31.566901 19.015625 31.740234 L 16.878906 33.876953 C 15.715833 35.040026 15.715833 36.956068 16.878906 38.119141 C 18.041828 39.283553 19.958172 39.283553 21.121094 38.119141 L 25 34.242188 L 28.878906 38.121094 C 29.460545 38.704224 30.234094 39 31 39 C 31.765906 39 32.539455 38.704224 33.121094 38.121094 C 34.284167 36.958021 34.284167 35.041979 33.121094 33.878906 L 30.984375 31.742188 C 31.423444 31.568855 31.877727 31.444669 32.300781 31.226562 L 32.302734 31.224609 C 33.346777 30.684256 34 29.60189 34 28.429688 C 34 26.230515 31.554138 24.845477 29.630859 25.857422 L 29.628906 25.857422 C 28.245919 26.586195 26.676234 27 25 27 C 23.323766 27 21.754128 26.586195 20.371094 25.857422 L 20.369141 25.857422 C 19.888368 25.604436 19.374807 25.50156 18.875 25.523438 z M 18.912109 27.486328 C 19.08024 27.489864 19.258819 27.534894 19.4375 27.628906 L 19.4375 27.626953 C 21.098466 28.50223 22.994234 29 25 29 C 27.005766 29 28.901534 28.50218 30.5625 27.626953 L 30.5625 27.628906 C 31.277221 27.252804 32 27.648859 32 28.429688 C 32 28.859485 31.760723 29.253619 31.382812 29.449219 C 30.617328 29.843646 29.787962 30.15595 28.917969 30.412109 L 27.302734 30.888672 L 28.492188 32.080078 L 31.707031 35.292969 C 32.105958 35.691896 32.105958 36.308104 31.707031 36.707031 L 31.705078 36.707031 C 31.506764 36.905901 31.258094 37 31 37 C 30.741906 37 30.493283 36.9059 30.294922 36.707031 L 30.292969 36.707031 L 25 31.414062 L 19.707031 36.705078 L 19.707031 36.707031 C 19.309953 37.104619 18.690047 37.104619 18.292969 36.707031 L 18.292969 36.705078 C 17.894042 36.306151 17.894042 35.691896 18.292969 35.292969 L 22.697266 30.886719 L 21.082031 30.412109 C 20.211206 30.155705 19.381329 29.842226 18.615234 29.447266 C 18.23831 29.252707 18 28.859485 18 28.429688 C 18 28.039274 18.180921 27.745612 18.451172 27.595703 C 18.586297 27.520749 18.743979 27.482793 18.912109 27.486328 z" font-weight="400" font-family="sans-serif" white-space="normal" overflow="visible"/>
</svg>

<?xml version="1.0" encoding="utf-8"?>
<!-- Generator: Adobe Illustrator 17.0.0, SVG Export Plug-In . SVG Version: 6.00 Build 0)  -->
<!DOCTYPE svg PUBLIC "-//W3C//DTD SVG 1.1//EN" "http://www.w3.org/Graphics/SVG/1.1/DTD/svg11.dtd">
<svg version="1.1" id="Layer_1" xmlns="http://www.w3.org/2000/svg" xmlns:xlink="http://www.w3.org/1999/xlink" x="0px" y="0px"
	 width="50px" height="50px" viewBox="0 0 50 50" enable-background="new 0 0 50 50" xml:space="preserve">
<path d="M25,21c2.197,0,4-1.803,4-4s-1.803-4-4-4s-4,1.803-4,4S22.803,21,25,21z M25,15c1.116,0,2,0.884,2,2s-0.884,2-2,2
	s-2-0.884-2-2S23.884,15,25,15z M32.303,31.225C33.347,30.684,34,29.602,34,28.43c0-2.199-2.446-3.584-4.369-2.572h-0.002
	C28.246,26.586,26.676,27,25,27s-3.246-0.414-4.629-1.143h-0.002c-0.481-0.253-0.994-0.356-1.494-0.334
	C17.376,25.589,16,26.78,16,28.43c0,1.172,0.654,2.255,1.699,2.795c0.423,0.218,0.877,0.342,1.316,0.516l-2.137,2.137
	c-1.163,1.163-1.163,3.079,0,4.242c1.163,1.164,3.079,1.164,4.242,0L25,34.242l3.879,3.879C29.461,38.704,30.234,39,31,39
	s1.539-0.296,2.121-0.879c1.163-1.163,1.163-3.079,0-4.242l-2.137-2.137c0.439-0.173,0.893-0.298,1.316-0.516L32.303,31.225z
	 M31.383,29.449c-0.766,0.394-1.595,0.707-2.465,0.963l-1.615,0.477l1.189,1.191l3.215,3.213c0.399,0.399,0.399,1.015,0,1.414
	h-0.002C31.507,36.906,31.258,37,31,37s-0.507-0.094-0.705-0.293h-0.002L25,31.414l-5.293,5.291v0.002
	c-0.397,0.398-1.017,0.398-1.414,0v-0.002c-0.399-0.399-0.399-1.013,0-1.412l4.404-4.406l-1.615-0.475
	c-0.871-0.256-1.701-0.57-2.467-0.965C18.238,29.253,18,28.859,18,28.43c0-0.39,0.181-0.684,0.451-0.834
	c0.135-0.075,0.293-0.113,0.461-0.109s0.347,0.049,0.525,0.143v-0.002C21.098,28.502,22.994,29,25,29s3.902-0.498,5.563-1.373v0.002
	C31.277,27.253,32,27.649,32,28.43C32,28.859,31.761,29.254,31.383,29.449z M25,2C12.309,2,2,12.309,2,25c0,12.691,10.309,23,23,23
	s23-10.309,23-23C48,12.309,37.691,2,25,2z M25,46C13.39,46,4,36.61,4,25S13.39,4,25,4s21,9.39,21,21S36.61,46,25,46z M25,25
	c4.406,0,8-3.594,8-8s-3.594-8-8-8s-8,3.594-8,8S20.594,25,25,25z M25,11c3.326,0,6,2.674,6,6s-2.674,6-6,6s-6-2.674-6-6
	S21.674,11,25,11z"/>
</svg>
